ui/StatusQ/src/assets/img/icons/linkPreviewThumbnails/medium.svg

<svg fill="none" height="40" viewBox="0 0 40 40" width="40" xmlns="http://www.w3.org/2000/svg"><rect fill="#fff" height="40" rx="20" width="40"/><path d="m13.897 12c4.3614 0 7.8967 3.567 7.8967 7.9667 0 4.3998-3.5356 7.9665-7.8967 7.9665-4.36115 0-7.897-3.5667-7.897-7.9665 0-4.3997 3.53558-7.9667 7.897-7.9667zm12.6109.4667c2.1807 0 3.9485 3.3575 3.9485 7.5h.0002c0 4.1415-1.7678 7.5001-3.9484 7.5001-2.1807 0-3.9485-3.3586-3.9485-7.5001 0-4.1414 1.7675-7.5 3.9482-7.5zm6.1034.7812c.7668 0 1.3887 3.008 1.3887 6.7188 0 3.7097-.6216 6.7189-1.3887 6.7189-.767 0-1.3884-3.0084-1.3884-6.7189s.6216-6.7188 1.3884-6.7188z" fill="#000"/></svg>

<svg width="40" height="40" viewBox="0 0 40 40" fill="none" xmlns="http://www.w3.org/2000/svg">
<rect width="40" height="40" rx="20" fill="white"/>
<path d="M13.897 12C18.2584 12 21.7937 15.567 21.7937 19.9667C21.7937 24.3665 18.2581 27.9332 13.897 27.9332C9.53585 27.9332 6 24.3665 6 19.9667C6 15.567 9.53558 12 13.897 12ZM26.5079 12.4667C28.6886 12.4667 30.4564 15.8242 30.4564 19.9667H30.4566C30.4566 24.1082 28.6888 27.4668 26.5082 27.4668C24.3275 27.4668 22.5597 24.1082 22.5597 19.9667C22.5597 15.8253 24.3272 12.4667 26.5079 12.4667ZM32.6113 13.2479C33.3781 13.2479 34 16.2559 34 19.9667C34 23.6764 33.3784 26.6856 32.6113 26.6856C31.8443 26.6856 31.2229 23.6772 31.2229 19.9667C31.2229 16.2562 31.8445 13.2479 32.6113 13.2479Z" fill="black"/>
</svg>
